X:1
T:MISS STEWART
T:MISS STEWART
T:NIEL GOW
C:NIEL GOW
%%score 1 2
L:1/8
M:2/2
K:A
V:1 treble 
V:2 bass 
V:1
 e | A<AcA eAcA | =G<GBG dGBg | A<AcA eAcA | Eaef cAA :| B | Aaga eaca | B=gdg BGGB | Aaga eaca | %9
 faef cAAB | Aaga eaca | B=gdg BGGB | A<AcA dBcA | Eaef cAA |] %14
V:2
 z | [A,,A,]2 [E,A,C]2 [E,A,C]2 [E,A,C]2 | [=G,,=G,]2 [D,G,B,]2 [D,G,B,]2 [D,G,B,]2 | %3
 [A,,A,]2 [E,A,C]2 [E,A,C]2 [E,A,C]2 | [E,A,C]2 [E,G,D]2 A,,2 [E,A,C] :| z | %6
 [A,,A,]2 [E,A,C]2 [E,A,C]2 [E,A,C]2 | [=G,,=G,]2 [D,G,B,]2 [D,G,B,]2 [D,G,B,]2 | %8
 A,2 [E,A,C]2 C,2 [E,A,]2 | [D,F,A,]2 [E,G,D]2 A,,2 [E,A,C]2 | %10
 [A,,A,]2 [E,A,C]2 [E,A,C]2 [E,A,C]2 | [=G,,=G,]2 [D,G,B,]2 [D,G,B,]2 [D,G,B,]2 | %12
 [A,,A,]2 [E,A,C]2 [E,G,B,]2 [E,A,C]2 | [E,A,C]2 [E,G,B,]2 [A,,-E,A,]2 [A,,E,A,] |] %14

